X: 1
T: Lord Wellington
M: 4/4
L: 1/8
R: reel
K: Gmaj
F|G2 B-G DGBG|A^GAB cdec|A^GAB cAAG|FADE FGAF|
G2 B-G DGBG|A^GAB cdef|gedB c2 Bc|(3dcB cA B-G G:|
|:f|g2 b-g dgbg|gbag fdde|f2 a-f dfaf|gbag fdef|
~g3-b ~a3-f|gbag fdef|gedB c2 B-c|(3dcB cA BG G:|
